front/static/img/logo.svg

<?xml version="1.0" encoding="utf-8"?>
<!-- Generator: Adobe Illustrator 18.1.1, SVG Export Plug-In . SVG Version: 6.00 Build 0)  -->
<svg version="1.1" xmlns="http://www.w3.org/2000/svg" xmlns:xlink="http://www.w3.org/1999/xlink" x="0px" y="0px"
	 viewBox="0 0 426 220.7" enable-background="new 0 0 426 220.7" xml:space="preserve">
<g id="Warstwa_2" display="none">
	<rect x="-145.7" y="-167" display="inline" fill="#424D52" width="736" height="553"/>
</g>
<g id="Warstwa_1">
	<g>
		<path fill="#777" d="M80.7,123.9c-5.4,0-9.6,1.7-12.7,5.2c-3.1,3.4-4.6,8.1-4.6,14.1c0,6.1,1.5,10.9,4.4,14.2
			c2.9,3.4,7.1,5.1,12.5,5.1c3.6,0,6.9-0.5,9.9-1.4v2.6c-2.8,1-6.4,1.5-10.6,1.5c-6,0-10.8-1.9-14.2-5.8c-3.5-3.9-5.2-9.3-5.2-16.3
			c0-4.4,0.8-8.2,2.5-11.5c1.7-3.3,4-5.9,7.1-7.7c3.1-1.8,6.7-2.7,10.8-2.7c4.2,0,7.9,0.8,11.2,2.3l-1.2,2.7
			C87.4,124.6,84.1,123.9,80.7,123.9z"/>
		<path fill="#777" d="M101.9,164.6H99V119h2.9V164.6z"/>
		<path fill="#777" d="M138.9,148.6c0,5.2-1.3,9.3-3.8,12.2s-6,4.4-10.4,4.4c-2.8,0-5.3-0.7-7.4-2c-2.1-1.3-3.8-3.3-4.9-5.8
			c-1.1-2.5-1.7-5.4-1.7-8.7c0-5.2,1.3-9.2,3.8-12.1s6-4.4,10.4-4.4c4.4,0,7.8,1.5,10.3,4.4S138.9,143.5,138.9,148.6z M113.7,148.6
			c0,4.4,1,7.8,2.9,10.2c1.9,2.5,4.6,3.7,8.2,3.7c3.5,0,6.2-1.2,8.2-3.7s2.9-5.9,2.9-10.2c0-4.4-1-7.8-2.9-10.2s-4.7-3.6-8.2-3.6
			c-3.5,0-6.2,1.2-8.1,3.6S113.7,144.2,113.7,148.6z"/>
		<path fill="#777" d="M150.2,132.8v20.6c0,3.2,0.7,5.5,2,7s3.4,2.2,6.3,2.2c3.8,0,6.6-1,8.4-2.9s2.7-5,2.7-9.3v-17.6h2.9v31.8
			h-2.5l-0.5-4.4h-0.2c-2.1,3.3-5.8,5-11,5c-7.2,0-10.9-3.9-10.9-11.6v-20.8H150.2z"/>
		<path fill="#777" d="M194.7,132.1c2.3,0,4.3,0.4,6,1.3s3.2,2.3,4.5,4.3h0.2c-0.1-2.5-0.2-4.9-0.2-7.2V119h2.9v45.6h-1.9
			l-0.7-4.9h-0.2c-2.4,3.6-5.9,5.4-10.4,5.4c-4.4,0-7.8-1.4-10.1-4.1s-3.5-6.7-3.5-12c0-5.5,1.2-9.7,3.5-12.6
			S190.3,132.1,194.7,132.1z M194.7,134.8c-3.5,0-6.1,1.2-7.8,3.7s-2.6,6-2.6,10.6c0,9,3.5,13.5,10.5,13.5c3.6,0,6.2-1,7.9-3.1
			s2.5-5.5,2.5-10.3v-0.5c0-4.9-0.8-8.5-2.5-10.6S198.4,134.8,194.7,134.8z"/>
		<path fill="#777" d="M237.6,164.6l-12.4-35.8H225c0.3,5.3,0.5,10.3,0.5,14.9v20.8h-6.4v-42.8h9.9l11.9,34.1h0.2l12.2-34.1h9.9
			v42.8h-6.7v-21.2c0-2.1,0.1-4.9,0.2-8.3s0.2-5.5,0.3-6.2h-0.2l-12.9,35.7H237.6z"/>
		<path fill="#777" d="M289.3,164.6h-7v-36.8h-12.6v-6h32.2v6h-12.6V164.6z"/>
		<path fill="#777" d="M335,164.6l-4.3-11.9h-16.4l-4.2,11.9h-7.4l16-43h7.6l16,43H335z M328.9,146.7l-4-11.7
			c-0.3-0.8-0.7-2-1.2-3.7s-0.9-2.9-1.1-3.7c-0.5,2.4-1.3,5-2.3,7.9l-3.9,11.2H328.9z"/>
	</g>
	<path fill="none" stroke="#383838" stroke-width="12" stroke-linecap="round" stroke-linejoin="round" stroke-miterlimit="10" d="
		M418,170.6c0.3-32-25.3-58.3-57.4-58.6c-3.1,0-6.1,0.2-9.1,0.6c-9.3-37.7-43.1-65.7-83.7-66.2c-20.9-0.2-40.1,6.9-55.3,19
		c-2-30.9-27.5-55.4-58.9-55.8c-33-0.4-60,26.1-60.4,59.1c0,0.3,0,0.7,0,1c-3.9-0.7-8-1.1-12.1-1.2C41.5,68.2,9,100,8.5,139.7
		c-0.4,39.7,31.4,72.2,71.1,72.6c12,0.1,23.3-2.7,33.3-7.8"/>
</g>
</svg>

<?xml version="1.0" standalone="no"?>
<!DOCTYPE svg PUBLIC "-//W3C//DTD SVG 1.1//EN" "http://www.w3.org/Graphics/SVG/1.1/DTD/svg11.dtd">
<svg width="100%" height="100%" viewBox="0 0 431 224" version="1.1" xmlns="http://www.w3.org/2000/svg" xmlns:xlink="http://www.w3.org/1999/xlink" xml:space="preserve" style="fill-rule:evenodd;clip-rule:evenodd;stroke-linecap:round;stroke-linejoin:round;stroke-miterlimit:1.41421;">
    <g transform="matrix(1,0,0,1,1.89604,0.796774)">
        <g>
            <path d="M80.7,123.9C75.3,123.9 71.1,125.6 68,129.1C64.9,132.5 63.4,137.2 63.4,143.2C63.4,149.3 64.9,154.1 67.8,157.4C70.7,160.8 74.9,162.5 80.3,162.5C83.9,162.5 87.2,162 90.2,161.1L90.2,163.7C87.4,164.7 83.8,165.2 79.6,165.2C73.6,165.2 68.8,163.3 65.4,159.4C61.9,155.5 60.2,150.1 60.2,143.1C60.2,138.7 61,134.9 62.7,131.6C64.4,128.3 66.7,125.7 69.8,123.9C72.9,122.1 76.5,121.2 80.6,121.2C84.8,121.2 88.5,122 91.8,123.5L90.6,126.2C87.4,124.6 84.1,123.9 80.7,123.9Z" style="fill:rgb(119,119,119);fill-rule:nonzero;"/>
            <rect x="99" y="119" width="2.9" height="45.6" style="fill:rgb(119,119,119);fill-rule:nonzero;"/>
            <path d="M138.9,148.6C138.9,153.8 137.6,157.9 135.1,160.8C132.6,163.7 129.1,165.2 124.7,165.2C121.9,165.2 119.4,164.5 117.3,163.2C115.2,161.9 113.5,159.9 112.4,157.4C111.3,154.9 110.7,152 110.7,148.7C110.7,143.5 112,139.5 114.5,136.6C117,133.7 120.5,132.2 124.9,132.2C129.3,132.2 132.7,133.7 135.2,136.6C137.7,139.5 138.9,143.5 138.9,148.6ZM113.7,148.6C113.7,153 114.7,156.4 116.6,158.8C118.5,161.3 121.2,162.5 124.8,162.5C128.3,162.5 131,161.3 133,158.8C135,156.3 135.9,152.9 135.9,148.6C135.9,144.2 134.9,140.8 133,138.4C131.1,136 128.3,134.8 124.8,134.8C121.3,134.8 118.6,136 116.7,138.4C114.8,140.8 113.7,144.2 113.7,148.6Z" style="fill:rgb(119,119,119);fill-rule:nonzero;"/>
            <path d="M150.2,132.8L150.2,153.4C150.2,156.6 150.9,158.9 152.2,160.4C153.5,161.9 155.6,162.6 158.5,162.6C162.3,162.6 165.1,161.6 166.9,159.7C168.7,157.8 169.6,154.7 169.6,150.4L169.6,132.8L172.5,132.8L172.5,164.6L170,164.6L169.5,160.2L169.3,160.2C167.2,163.5 163.5,165.2 158.3,165.2C151.1,165.2 147.4,161.3 147.4,153.6L147.4,132.8L150.2,132.8Z" style="fill:rgb(119,119,119);fill-rule:nonzero;"/>
            <path d="M194.7,132.1C197,132.1 199,132.5 200.7,133.4C202.4,134.3 203.9,135.7 205.2,137.7L205.4,137.7C205.3,135.2 205.2,132.8 205.2,130.5L205.2,119L208.1,119L208.1,164.6L206.2,164.6L205.5,159.7L205.3,159.7C202.9,163.3 199.4,165.1 194.9,165.1C190.5,165.1 187.1,163.7 184.8,161C182.5,158.3 181.3,154.3 181.3,149C181.3,143.5 182.5,139.3 184.8,136.4C187.1,133.5 190.3,132.1 194.7,132.1ZM194.7,134.8C191.2,134.8 188.6,136 186.9,138.5C185.2,141 184.3,144.5 184.3,149.1C184.3,158.1 187.8,162.6 194.8,162.6C198.4,162.6 201,161.6 202.7,159.5C204.4,157.4 205.2,154 205.2,149.2L205.2,148.7C205.2,143.8 204.4,140.2 202.7,138.1C201,136 198.4,134.8 194.7,134.8Z" style="fill:rgb(119,119,119);fill-rule:nonzero;"/>
            <path d="M237.6,164.6L225.2,128.8L225,128.8C225.3,134.1 225.5,139.1 225.5,143.7L225.5,164.5L219.1,164.5L219.1,121.7L229,121.7L240.9,155.8L241.1,155.8L253.3,121.7L263.2,121.7L263.2,164.5L256.5,164.5L256.5,143.3C256.5,141.2 256.6,138.4 256.7,135C256.8,131.6 256.9,129.5 257,128.8L256.8,128.8L243.9,164.5L237.6,164.5L237.6,164.6Z" style="fill:rgb(119,119,119);fill-rule:nonzero;"/>
            <path d="M289.3,164.6L282.3,164.6L282.3,127.8L269.7,127.8L269.7,121.8L301.9,121.8L301.9,127.8L289.3,127.8L289.3,164.6Z" style="fill:rgb(119,119,119);fill-rule:nonzero;"/>
            <path d="M335,164.6L330.7,152.7L314.3,152.7L310.1,164.6L302.7,164.6L318.7,121.6L326.3,121.6L342.3,164.6L335,164.6ZM328.9,146.7L324.9,135C324.6,134.2 324.2,133 323.7,131.3C323.2,129.6 322.8,128.4 322.6,127.6C322.1,130 321.3,132.6 320.3,135.5L316.4,146.7L328.9,146.7Z" style="fill:rgb(119,119,119);fill-rule:nonzero;"/>
        </g>
        <path d="M418,170.6C418.3,138.6 392.7,112.3 360.6,112C357.5,112 354.5,112.2 351.5,112.6C342.2,74.9 308.4,46.9 267.8,46.4C246.9,46.2 227.7,53.3 212.5,65.4C210.5,34.5 185,10 153.6,9.6C120.6,9.2 93.6,35.7 93.2,68.7C93.2,69 93.2,69.4 93.2,69.7C89.3,69 85.2,68.6 81.1,68.5C41.5,68.2 9,100 8.5,139.7C8.1,179.4 39.9,211.9 79.6,212.3C91.6,212.4 102.9,209.6 112.9,204.5" style="fill:none;stroke-width:12px;stroke:rgb(56,56,56);"/>
    </g>
</svg>
